public/assets/icons/condition_shredded.svg

<?xml version="1.0" standalone="no"?>
<!DOCTYPE svg PUBLIC "-//W3C//DTD SVG 1.1//EN" "http://www.w3.org/Graphics/SVG/1.1/DTD/svg11.dtd" >
<svg xmlns="http://www.w3.org/2000/svg" xmlns:xlink="http://www.w3.org/1999/xlink" version="1.1" viewBox="0 -64 1024 1024" width="512" height="512">
  <g transform="matrix(1 0 0 -1 0 960)">
   <path fill="currentColor"
d="M444 788q-47 -22 -112 -44.5t-127 -22.5l2 -30t6 -73t10 -90q7 -47 16 -80q17 -63 40 -125t62 -114q33 -43 76.5 -77t94.5 -59q51 25 94.5 59t76.5 77q39 52 62 114t40 125q9 33 16 80q6 47 10 90t6 73l2 30q-62 0 -127 22.5t-112 44.5v-101l-68 -102l171 -103l-205 -136
l136 -103l-102 -102l34 102l-171 103l171 136l-205 103l103 102v101z" />
  </g>

</svg>

<?xml version="1.0" encoding="UTF-8" standalone="no"?>
<svg
   version="1.1"
   viewBox="0 -64 1024 1024"
   width="512"
   height="512"
   id="svg580"
   sodipodi:docname="condition_shredded.svg"
   inkscape:version="1.2.2 (732a01da63, 2022-12-09)"
   xmlns:inkscape="http://www.inkscape.org/namespaces/inkscape"
   xmlns:sodipodi="http://sodipodi.sourceforge.net/DTD/sodipodi-0.dtd"
   xmlns="http://www.w3.org/2000/svg"
   xmlns:svg="http://www.w3.org/2000/svg">
  <defs
     id="defs584" />
  <sodipodi:namedview
     id="namedview582"
     pagecolor="#ffffff"
     bordercolor="#000000"
     borderopacity="0.25"
     inkscape:showpageshadow="2"
     inkscape:pageopacity="0.0"
     inkscape:pagecheckerboard="0"
     inkscape:deskcolor="#d1d1d1"
     showgrid="false"
     inkscape:zoom="1.6191406"
     inkscape:cx="236.23643"
     inkscape:cy="256.30881"
     inkscape:window-width="1920"
     inkscape:window-height="1009"
     inkscape:window-x="-8"
     inkscape:window-y="-8"
     inkscape:window-maximized="1"
     inkscape:current-layer="svg580" />
  <g
     transform="matrix(1,0,0,-1,0,878.5)"
     id="g578">
    <path
       fill="currentColor"
       d="M 444,788 Q 397,766 332,743.5 267,721 205,721 l 2,-30 q 0,0 6,-73 6,-73 10,-90 7,-47 16,-80 17,-63 40,-125 23,-62 62,-114 33,-43 76.5,-77 43.5,-34 94.5,-59 51,25 94.5,59 43.5,34 76.5,77 39,52 62,114 23,62 40,125 9,33 16,80 6,47 10,90 4,43 6,73 l 2,30 Q 757,721 692,743.5 627,766 580,788 V 687 L 512,585 683,482 478,346 614,243 512,141 546,243 375,346 546,482 341,585 444,687 Z"
       id="path576" />
  </g>
</svg>
